X:1
T:Merci Blanchard
C:Eric Elsener
A:France
Z:abc transcription Simon Wascher
M:2/4
L:1/8
K:D
E3/2E/2 EG | B3A | d3/2c/2 BA | G3/2F/2 ED |\
E3/2E/2 EG | B3A | d3/2c/2 BA | F3/2B/2 AG :|
|:\
F3/2F/2 FB | A3/2G/2 FE | F3/2F/2 FB | A3/2^G/2 AD |\
F3/2F/2 FB | A3/2G/2 FE | BG EG | D4 :|
